Papirus/64x64/apps/bendy-and-the-ink-machine.svg

<?xml version="1.0" encoding="UTF-8" standalone="no"?>
<svg
   id="_图层_1"
   version="1.1"
   viewBox="0 0 64 64" width="64" height="64"
   sodipodi:docname="bendy-and-the-ink-machine.svg"
   xml:space="preserve"
   inkscape:version="1.4 (e7c3feb100, 2024-10-09)"
   xmlns:inkscape="http://www.inkscape.org/namespaces/inkscape"
   xmlns:sodipodi="http://sodipodi.sourceforge.net/DTD/sodipodi-0.dtd"
   xmlns="http://www.w3.org/2000/svg"
   xmlns:svg="http://www.w3.org/2000/svg"><sodipodi:namedview
     id="namedview26"
     pagecolor="#505050"
     bordercolor="#eeeeee"
     borderopacity="1"
     inkscape:showpageshadow="0"
     inkscape:pageopacity="0"
     inkscape:pagecheckerboard="0"
     inkscape:deskcolor="#505050"
     inkscape:zoom="10.6875"
     inkscape:cx="32"
     inkscape:cy="32"
     inkscape:window-width="1920"
     inkscape:window-height="939"
     inkscape:window-x="0"
     inkscape:window-y="34"
     inkscape:window-maximized="1"
     inkscape:current-layer="_图层_1" /><!-- Generator: Adobe Illustrator 29.0.1, SVG Export Plug-In . SVG Version: 2.1.0 Build 192)  --><defs
     id="defs6"><style
       id="style1">
      .st0 {
        fill-opacity: .5;
      }

      .st0, .st1, .st2, .st3, .st4, .st5, .st6, .st7 {
        fill: #fff;
      }

      .st8 {
        fill: #133c9a;
      }

      .st2, .st9 {
        display: none;
      }

      .st3 {
        fill-opacity: .2;
      }

      .st4 {
        fill-opacity: .9;
      }

      .st10 {
        fill: #3370ff;
      }

      .st11 {
        fill: url(#_未命名的渐变_3);
      }

      .st12 {
        fill: url(#_未命名的渐变);
      }

      .st5 {
        fill-opacity: .3;
      }

      .st6 {
        fill-opacity: 0;
      }

      .st7 {
        fill-opacity: .7;
      }

      .st13 {
        fill: #00d6b9;
      }

      .st14 {
        fill: url(#_未命名的渐变_2);
      }
    </style><radialGradient
       id="_未命名的渐变"
       data-name="未命名的渐变"
       cx="123.9"
       cy="-40.2"
       fx="123.9"
       fy="-40.2"
       r="59.4"
       gradientTransform="translate(-26.8 25.5) scale(.6 -.7)"
       gradientUnits="userSpaceOnUse"><stop
         offset="0"
         stop-color="#db202e"
         id="stop1" /><stop
         offset="1"
         stop-color="#e01b24"
         id="stop2" /></radialGradient><radialGradient
       id="_未命名的渐变_2"
       data-name="未命名的渐变 2"
       cx="67.6"
       cy="26.8"
       fx="67.6"
       fy="26.8"
       r="105.2"
       gradientTransform="translate(-26.6 25.3) scale(.6 -.7)"
       gradientUnits="userSpaceOnUse"><stop
         offset="0"
         stop-color="#ffb648"
         id="stop3" /><stop
         offset="1"
         stop-color="#ff7800"
         stop-opacity="0"
         id="stop4" /></radialGradient><radialGradient
       id="_未命名的渐变_3"
       data-name="未命名的渐变 3"
       cx="61.7"
       cy="18.6"
       fx="61.7"
       fy="18.6"
       r="68"
       gradientTransform="translate(-26.8 25.8) scale(.6 -.7)"
       gradientUnits="userSpaceOnUse"><stop
         offset="0"
         stop-color="#c64600"
         id="stop5" /><stop
         offset="1"
         stop-color="#a51d2d"
         id="stop6" /></radialGradient></defs><path
     class="st1"
     d="M47.5,64.1H13.8c-7.6,0-13.8-6.3-13.8-13.8V13.7C0,6.2,6.2,0,13.7,0h36.6c7.5,0,13.7,6.2,13.7,13.7v36.6c0,7.5-6.2,13.7-13.7,13.7h-2.9.1Z"
     id="path6"
     style="fill:#dcdcdc;fill-opacity:1" /><g
     id="g26"
     transform="matrix(0.93149541,0,0,0.92854864,2.4260652,2.4842637)"><path
       style="opacity:0.2"
       d="m 41,7 c 2.111,0.835 2.997,1.3495 3,2.5 C 44,11.985 38.627,14 32,14 25.373,14 20,11.985 20,9.5 20.005,8.384 20.999,7.8261 23,7 11.594,10.816 4.0155,20.972 4,33 4,48.464 16.536,61 32,61 47.464,61 60,48.464 60,33 59.992,20.899 52.501,10.764 41,7 Z"
       id="path1" /><path
       style="fill:#4f4f4f"
       d="m 41,6 c 2.111,0.8349 2.997,1.3495 3,2.5 C 44,10.985 38.627,13 32,13 25.373,13 20,10.985 20,8.5 20.005,7.384 20.999,6.8261 23,6 11.594,9.8157 4.0155,19.972 4,32 4,47.464 16.536,60 32,60 47.464,60 60,47.464 60,32 59.992,19.899 52.501,9.7639 41,6 Z"
       id="path2" /><path
       style="opacity:0.2"
       d="M 19,22 C 10,22 7.8398,26.699 7.8398,26.699 7.2929,28.755 7.0107,30.873 7,33 7,46.807 18.193,58 32,58 45.807,58 57,46.807 57,33 56.993,30.938 56.73,28.884 56.219,26.887 56.219,26.887 54,22 45,22 c -5,1 -13,7 -13,7 0,0 -8,-6 -13,-7 z m 1,8 a 6,7 0 0 1 6,7 6,7 0 0 1 -2.039,5.25 A 6,1 0 0 0 20,42 6,1 0 0 0 16.041,42.25 6,7 0 0 1 14.068,38 H 20 L 14.402,34.502 A 6,7 0 0 1 20,30 Z m 23,0 a 6,7 0 0 1 6,7 6,7 0 0 1 -2.039,5.25 A 6,1 0 0 0 43,42 6,1 0 0 0 39.041,42.25 6,7 0 0 1 37.068,38 H 43 L 37.402,34.502 A 6,7 0 0 1 43,30 Z M 24,45 c 0.345,0 0.675,0.031 1,0.078 v 7.168 c -0.345,-0.087 -0.677,-0.185 -1,-0.291 z m 16,0 c 0.338,0 0.672,0.039 1,0.096 v 6.48 c -0.318,0.138 -0.65,0.265 -1,0.379 z m -1,0.082 v 7.164 c -0.326,0.083 -0.66,0.158 -1,0.225 v -7.17 c 0.328,-0.092 0.661,-0.167 1,-0.219 z m -16,0.037 v 6.457 c -0.358,-0.155 -0.693,-0.327 -1,-0.513 v -5.639 c 0.324,-0.14 0.663,-0.234 1,-0.305 z m 3,0.168 c 0.339,0.091 0.673,0.196 1,0.313 v 7.025 c -0.334,-0.051 -0.674,-0.09 -1,-0.154 z m 16,0.084 c 0.374,0.148 0.708,0.347 1,0.586 v 4.33 c -0.284,0.285 -0.618,0.543 -1,0.775 z m -5,0.252 v 7.002 c -0.334,0.051 -0.662,0.115 -1,0.154 V 46 c 0.332,-0.129 0.665,-0.257 1,-0.377 z m -9,0.356 c 0.333,0.131 0.666,0.261 1,0.384 v 6.5 c -0.334,-0.027 -0.666,-0.045 -1,-0.084 z m -7,0.06 v 4.248 C 20.378,49.663 20,48.913 20,48 c 0,-0.829 0.412,-1.476 1,-1.961 z m 14,0.338 v 6.486 c -0.334,0.028 -0.67,0.065 -1,0.082 v -6.246 c 0.337,-0.094 0.67,-0.203 1,-0.322 z m -5,0.316 c 0.328,0.094 0.659,0.172 1,0.225 v 6.057 c -0.334,-0.009 -0.657,-0.011 -1,-0.03 z m 3,0.225 v 6.057 C 32.666,52.983 32.32,53 32,53 v -6 c 0.341,0 0.673,-0.032 1,-0.082 z"
       id="path3" /><path
       style="fill:#ffce66"
       d="M 19,21 C 10,21 7.8398,25.699 7.8398,25.699 7.2929,27.755 7.0107,29.873 7,32 7,45.807 18.193,57 32,57 45.807,57 57,45.807 57,32 56.993,29.938 56.73,27.884 56.219,25.887 56.219,25.887 54,21 45,21 c -5,1 -13,7 -13,7 0,0 -8,-6 -13,-7 z m 1,8 a 6,7 0 0 1 6,7 6,7 0 0 1 -2.039,5.25 A 6,1 0 0 0 20,41 6,1 0 0 0 16.041,41.25 6,7 0 0 1 14.068,37 H 20 L 14.402,33.502 A 6,7 0 0 1 20,29 Z m 23,0 a 6,7 0 0 1 6,7 6,7 0 0 1 -2.039,5.25 A 6,1 0 0 0 43,41 6,1 0 0 0 39.041,41.25 6,7 0 0 1 37.068,37 H 43 L 37.402,33.502 A 6,7 0 0 1 43,29 Z M 24,44 c 0.345,0 0.675,0.031 1,0.078 v 7.168 c -0.345,-0.087 -0.677,-0.185 -1,-0.291 z m 16,0 c 0.338,0 0.672,0.039 1,0.096 v 6.48 c -0.318,0.138 -0.65,0.265 -1,0.379 z m -1,0.082 v 7.164 c -0.326,0.083 -0.66,0.158 -1,0.225 v -7.17 c 0.328,-0.092 0.661,-0.167 1,-0.219 z m -16,0.037 v 6.457 c -0.358,-0.155 -0.693,-0.327 -1,-0.513 v -5.639 c 0.324,-0.14 0.663,-0.234 1,-0.305 z m 3,0.168 c 0.339,0.091 0.673,0.196 1,0.313 v 7.025 c -0.334,-0.051 -0.674,-0.09 -1,-0.154 z m 16,0.084 c 0.374,0.148 0.708,0.347 1,0.586 v 4.33 c -0.284,0.285 -0.618,0.543 -1,0.776 z m -5,0.252 v 7.002 c -0.334,0.051 -0.662,0.115 -1,0.154 V 45 c 0.332,-0.129 0.665,-0.257 1,-0.377 z m -9,0.356 c 0.333,0.131 0.666,0.261 1,0.384 v 6.5 c -0.334,-0.027 -0.666,-0.045 -1,-0.084 z m -7,0.06 v 4.248 C 20.378,48.663 20,47.913 20,47 c 0,-0.829 0.412,-1.476 1,-1.961 z m 14,0.338 v 6.486 c -0.334,0.028 -0.67,0.065 -1,0.082 v -6.246 c 0.337,-0.094 0.67,-0.203 1,-0.322 z m -5,0.316 c 0.328,0.094 0.659,0.172 1,0.225 v 6.057 c -0.334,-0.009 -0.657,-0.011 -1,-0.03 z m 3,0.225 v 6.057 C 32.666,51.983 32.32,52 32,52 v -6 c 0.341,0 0.673,-0.032 1,-0.082 z"
       id="path4" /><path
       style="opacity:0.1;fill:#ffffff"
       d="M 23,6 C 11.594,9.8157 4.0155,19.972 4,32 4,32.204 4.0113,32.406 4.0156,32.609 4.1779,21.829 10.423,12.616 20.037,8.1934 20.215,7.2766 21.193,6.7459 23,6 Z m 18,0 c 1.896,0.7502 2.798,1.2452 2.965,2.1719 C 53.646,12.549 59.829,21.754 59.984,32.604 59.989,32.402 60,32.202 60,32 59.992,19.899 52.501,9.7639 41,6 Z m 2.922,3 C 43.259,11.25 38.177,13 32,13 25.837,13 20.766,11.258 20.084,9.0156 20.034,9.1664 20.001,9.325 20,9.5 20,11.985 25.373,14 32,14 38.627,14 44,11.985 44,9.5 44,9.3173 43.968,9.1545 43.922,9 Z"
       id="path5" /><path
       style="opacity:0.2;fill:#ffffff"
       d="m 19,21 c -9,0 -11.1602,4.699 -11.1602,4.699 -0.4539,1.707 -0.7154,3.455 -0.8007,5.217 0.1262,-1.423 0.3645,-2.834 0.7324,-4.217 0,0 2.1601,-4.699 11.1605,-4.699 5,1 13,7 13,7 0,0 8,-6 13,-7 9,0 11.218,4.887 11.218,4.887 0.512,1.997 0.774,4.051 0.782,6.113 0,0.384 -0.013,0.765 -0.03,1.145 C 56.962,33.437 57,32.723 57,32 56.993,29.938 56.73,27.884 56.219,25.887 56.219,25.887 54,21 45,21 c -5,1 -13,7 -13,7 0,0 -8,-6 -13,-7 z m -4.33,12.668 a 6,7 0 0 0 -0.336,0.834 L 18.332,37 H 20 Z m 23,0 a 6,7 0 0 0 -0.336,0.834 L 41.332,37 H 43 Z m -11.738,3.32 A 6,7 0 0 1 23.961,41.25 6,1 0 0 0 20,41 6,1 0 0 0 16.041,41.25 6,7 0 0 1 14.266,38 H 14 a 6,7 0 0 0 1.973,4.25 6,1 0 0 1 3.959,-0.25 6,1 0 0 1 3.961,0.25 6,7 0 0 0 2.039,-5.25 6,7 0 0 0 0,-0.012 z m 23,0 A 6,7 0 0 1 46.961,41.25 6,1 0 0 0 43,41 6,1 0 0 0 39.041,41.25 6,7 0 0 1 37.266,38 H 37 a 6,7 0 0 0 1.973,4.25 6,1 0 0 1 3.959,-0.25 6,1 0 0 1 3.961,0.25 6,7 0 0 0 2.039,-5.25 6,7 0 0 0 0,-0.012 z m -25,8.012 v 6.955 c 0.323,0.106 0.655,0.204 1,0.291 V 51.227 C 24.612,51.144 24.301,51.053 24,50.955 V 45.006 C 23.977,45.006 23.955,45 23.932,45 Z m 16,0 v 6.955 c 0.35,-0.114 0.682,-0.241 1,-0.379 V 50.602 C 40.634,50.728 40.326,50.848 40,50.955 V 45.006 C 39.977,45.006 39.955,45 39.932,45 Z M 38,45.285 c -0.023,0.006 -0.046,0.01 -0.068,0.016 v 7.17 c 0.34,-0.067 0.673,-0.142 1,-0.225 V 51.262 C 38.627,51.338 38.317,51.408 38,51.471 Z m -12.068,0.002 v 7.184 c 0.325,0.064 0.666,0.103 1,0.154 v -1.01 C 26.62,51.569 26.303,51.531 26,51.471 v -6.162 c -0.023,-0.007 -0.045,-0.016 -0.068,-0.022 z m 16,0.084 v 5.692 c 0.381,-0.233 0.715,-0.491 1,-0.776 v -0.939 c -0.27,0.26 -0.579,0.5 -0.932,0.715 v -4.659 c -0.024,-0.01 -0.044,-0.023 -0.068,-0.033 z M 22,45.398 c -0.023,0.01 -0.046,0.016 -0.068,0.026 v 5.639 c 0.307,0.186 0.641,0.358 1,0.513 V 50.541 C 22.601,50.394 22.286,50.237 22,50.063 Z m 14,0.577 C 35.977,45.983 35.954,45.991 35.932,46 v 6.779 c 0.338,-0.039 0.666,-0.103 1,-0.154 v -0.99 C 36.621,51.684 36.315,51.743 36,51.779 Z m -8.068,0.004 v 6.8 c 0.334,0.039 0.665,0.057 1,0.084 V 51.857 C 28.621,51.833 28.311,51.815 28,51.779 V 46.004 C 27.977,45.995 27.954,45.987 27.932,45.979 Z M 34,46.678 c -0.023,0.006 -0.045,0.015 -0.068,0.021 v 6.246 c 0.329,-0.017 0.666,-0.054 1,-0.082 V 51.869 C 34.62,51.896 34.307,51.929 34,51.945 Z m -4.068,0.015 v 6.252 c 0.343,0.019 0.666,0.021 1,0.03 V 51.973 C 30.622,51.965 30.32,51.963 30,51.945 V 46.709 C 29.978,46.703 29.954,46.7 29.932,46.693 Z M 32,46.994 C 31.977,46.994 31.955,47 31.932,47 v 6 c 0.32,0 0.665,-0.017 1,-0.025 V 51.977 C 32.619,51.986 32.298,52 32,52 Z m -11.965,0.344 c -0.062,0.207 -0.103,0.425 -0.103,0.662 0,0.913 0.378,1.663 1,2.287 v -1.08 c -0.5,-0.527 -0.818,-1.146 -0.897,-1.869 z"
       id="path6-5" /></g></svg>

<svg xmlns="http://www.w3.org/2000/svg" width="64" height="64" version="1.1">
 <path style="opacity:0.2" d="M 41,7 C 43.111,7.835 43.997,8.3495 44,9.5 44,11.985 38.627,14 32,14 25.373,14 20,11.985 20,9.5 20.005,8.384 20.999,7.8261 23,7 11.594,10.816 4.0155,20.972 4,33 4,48.464 16.536,61 32,61 47.464,61 60,48.464 60,33 59.992,20.899 52.501,10.764 41,7 Z"/>
 <path style="fill:#4f4f4f" d="M 41,6 C 43.111,6.8349 43.997,7.3495 44,8.5 44,10.985 38.627,13 32,13 25.373,13 20,10.985 20,8.5 20.005,7.384 20.999,6.8261 23,6 11.594,9.8157 4.0155,19.972 4,32 4,47.464 16.536,60 32,60 47.464,60 60,47.464 60,32 59.992,19.899 52.501,9.7639 41,6 Z"/>
 <path style="opacity:0.2" d="M 19,22 C 10,22 7.8398,26.699 7.8398,26.699 7.2929,28.755 7.0107,30.873 7,33 7,46.807 18.193,58 32,58 45.807,58 57,46.807 57,33 56.993,30.938 56.73,28.884 56.219,26.887 56.219,26.887 54,22 45,22 40,23 32,29 32,29 32,29 24,23 19,22 Z M 20,30 A 6,7 0 0 1 26,37 6,7 0 0 1 23.961,42.25 6,1 0 0 0 20,42 6,1 0 0 0 16.041,42.25 6,7 0 0 1 14.068,38 H 20 L 14.402,34.502 A 6,7 0 0 1 20,30 Z M 43,30 A 6,7 0 0 1 49,37 6,7 0 0 1 46.961,42.25 6,1 0 0 0 43,42 6,1 0 0 0 39.041,42.25 6,7 0 0 1 37.068,38 H 43 L 37.402,34.502 A 6,7 0 0 1 43,30 Z M 24,45 C 24.345,45 24.675,45.031 25,45.078 V 52.246 C 24.655,52.159 24.323,52.061 24,51.955 Z M 40,45 C 40.338,45 40.672,45.039 41,45.096 V 51.576 C 40.682,51.714 40.35,51.841 40,51.955 Z M 39,45.082 V 52.246 C 38.674,52.329 38.34,52.404 38,52.471 V 45.301 C 38.328,45.209 38.661,45.134 39,45.082 Z M 23,45.119 V 51.576 C 22.642,51.421 22.307,51.249 22,51.063 V 45.424 C 22.324,45.284 22.663,45.19 23,45.119 Z M 26,45.287 C 26.339,45.378 26.673,45.483 27,45.6 V 52.625 C 26.666,52.574 26.326,52.535 26,52.471 Z M 42,45.371 C 42.374,45.519 42.708,45.718 43,45.957 V 50.287 C 42.716,50.572 42.382,50.83 42,51.062 Z M 37,45.623 V 52.625 C 36.666,52.676 36.338,52.74 36,52.779 V 46 C 36.332,45.871 36.665,45.743 37,45.623 Z M 28,45.979 C 28.333,46.11 28.666,46.24 29,46.363 V 52.863 C 28.666,52.836 28.334,52.818 28,52.779 Z M 21,46.039 V 50.287 C 20.378,49.663 20,48.913 20,48 20,47.171 20.412,46.524 21,46.039 Z M 35,46.377 V 52.863 C 34.666,52.891 34.33,52.928 34,52.945 V 46.699 C 34.337,46.605 34.67,46.496 35,46.377 Z M 30,46.693 C 30.328,46.787 30.659,46.865 31,46.918 V 52.975 C 30.666,52.966 30.343,52.964 30,52.945 Z M 33,46.918 V 52.975 C 32.666,52.983 32.32,53 32,53 V 47 C 32.341,47 32.673,46.968 33,46.918 Z"/>
 <path style="fill:#ffce66" d="M 19,21 C 10,21 7.8398,25.699 7.8398,25.699 7.2929,27.755 7.0107,29.873 7,32 7,45.807 18.193,57 32,57 45.807,57 57,45.807 57,32 56.993,29.938 56.73,27.884 56.219,25.887 56.219,25.887 54,21 45,21 40,22 32,28 32,28 32,28 24,22 19,21 Z M 20,29 A 6,7 0 0 1 26,36 6,7 0 0 1 23.961,41.25 6,1 0 0 0 20,41 6,1 0 0 0 16.041,41.25 6,7 0 0 1 14.068,37 H 20 L 14.402,33.502 A 6,7 0 0 1 20,29 Z M 43,29 A 6,7 0 0 1 49,36 6,7 0 0 1 46.961,41.25 6,1 0 0 0 43,41 6,1 0 0 0 39.041,41.25 6,7 0 0 1 37.068,37 H 43 L 37.402,33.502 A 6,7 0 0 1 43,29 Z M 24,44 C 24.345,44 24.675,44.031 25,44.078 V 51.246 C 24.655,51.159 24.323,51.061 24,50.955 Z M 40,44 C 40.338,44 40.672,44.039 41,44.096 V 50.576 C 40.682,50.714 40.35,50.841 40,50.955 Z M 39,44.082 V 51.246 C 38.674,51.329 38.34,51.404 38,51.471 V 44.301 C 38.328,44.209 38.661,44.134 39,44.082 Z M 23,44.119 V 50.576 C 22.642,50.421 22.307,50.249 22,50.063 V 44.424 C 22.324,44.284 22.663,44.19 23,44.119 Z M 26,44.287 C 26.339,44.378 26.673,44.483 27,44.6 V 51.625 C 26.666,51.574 26.326,51.535 26,51.471 Z M 42,44.371 C 42.374,44.519 42.708,44.718 43,44.957 V 49.287 C 42.716,49.572 42.382,49.83 42,50.063 Z M 37,44.623 V 51.625 C 36.666,51.676 36.338,51.74 36,51.779 V 45 C 36.332,44.871 36.665,44.743 37,44.623 Z M 28,44.979 C 28.333,45.11 28.666,45.24 29,45.363 V 51.863 C 28.666,51.836 28.334,51.818 28,51.779 Z M 21,45.039 V 49.287 C 20.378,48.663 20,47.913 20,47 20,46.171 20.412,45.524 21,45.039 Z M 35,45.377 V 51.863 C 34.666,51.891 34.33,51.928 34,51.945 V 45.699 C 34.337,45.605 34.67,45.496 35,45.377 Z M 30,45.693 C 30.328,45.787 30.659,45.865 31,45.918 V 51.975 C 30.666,51.966 30.343,51.964 30,51.945 Z M 33,45.918 V 51.975 C 32.666,51.983 32.32,52 32,52 V 46 C 32.341,46 32.673,45.968 33,45.918 Z"/>
 <path style="opacity:0.1;fill:#ffffff" d="M 23,6 C 11.594,9.8157 4.0155,19.972 4,32 4,32.204 4.0113,32.406 4.0156,32.609 4.1779,21.829 10.423,12.616 20.037,8.1934 20.215,7.2766 21.193,6.7459 23,6 Z M 41,6 C 42.896,6.7502 43.798,7.2452 43.965,8.1719 53.646,12.549 59.829,21.754 59.984,32.604 59.989,32.402 60,32.202 60,32 59.992,19.899 52.501,9.7639 41,6 Z M 43.922,9 C 43.259,11.25 38.177,13 32,13 25.837,13 20.766,11.258 20.084,9.0156 20.034,9.1664 20.001,9.325 20,9.5 20,11.985 25.373,14 32,14 38.627,14 44,11.985 44,9.5 44,9.3173 43.968,9.1545 43.922,9 Z"/>
 <path style="opacity:0.2;fill:#ffffff" d="M 19,21 C 10,21 7.8398,25.699 7.8398,25.699 7.3859,27.406 7.1244,29.154 7.0391,30.916 7.1653,29.493 7.4036,28.082 7.7715,26.699 7.7715,26.699 9.9316,22 18.932,22 23.932,23 31.932,29 31.932,29 31.932,29 39.932,23 44.932,22 53.932,22 56.15,26.887 56.15,26.887 56.662,28.884 56.924,30.938 56.932,33 56.932,33.384 56.919,33.765 56.902,34.145 56.962,33.437 57,32.723 57,32 56.993,29.938 56.73,27.884 56.219,25.887 56.219,25.887 54,21 45,21 40,22 32,28 32,28 32,28 24,22 19,21 Z M 14.67,33.668 A 6,7 0 0 0 14.334,34.502 L 18.332,37 H 20 Z M 37.67,33.668 A 6,7 0 0 0 37.334,34.502 L 41.332,37 H 43 Z M 25.932,36.988 A 6,7 0 0 1 23.961,41.25 6,1 0 0 0 20,41 6,1 0 0 0 16.041,41.25 6,7 0 0 1 14.266,38 H 14 A 6,7 0 0 0 15.973,42.25 6,1 0 0 1 19.932,42 6,1 0 0 1 23.893,42.25 6,7 0 0 0 25.932,37 6,7 0 0 0 25.932,36.988 Z M 48.932,36.988 A 6,7 0 0 1 46.961,41.25 6,1 0 0 0 43,41 6,1 0 0 0 39.041,41.25 6,7 0 0 1 37.266,38 H 37 A 6,7 0 0 0 38.973,42.25 6,1 0 0 1 42.932,42 6,1 0 0 1 46.893,42.25 6,7 0 0 0 48.932,37 6,7 0 0 0 48.932,36.988 Z M 23.932,45 V 51.955 C 24.255,52.061 24.587,52.159 24.932,52.246 V 51.227 C 24.612,51.144 24.301,51.053 24,50.955 V 45.006 C 23.977,45.006 23.955,45 23.932,45 Z M 39.932,45 V 51.955 C 40.282,51.841 40.614,51.714 40.932,51.576 V 50.602 C 40.634,50.728 40.326,50.848 40,50.955 V 45.006 C 39.977,45.006 39.955,45 39.932,45 Z M 38,45.285 C 37.977,45.291 37.954,45.295 37.932,45.301 V 52.471 C 38.272,52.404 38.605,52.329 38.932,52.246 V 51.262 C 38.627,51.338 38.317,51.408 38,51.471 Z M 25.932,45.287 V 52.471 C 26.257,52.535 26.598,52.574 26.932,52.625 V 51.615 C 26.62,51.569 26.303,51.531 26,51.471 V 45.309 C 25.977,45.302 25.955,45.293 25.932,45.287 Z M 41.932,45.371 V 51.063 C 42.313,50.83 42.647,50.572 42.932,50.287 V 49.348 C 42.662,49.608 42.353,49.848 42,50.063 V 45.404 C 41.976,45.394 41.956,45.381 41.932,45.371 Z M 22,45.398 C 21.977,45.408 21.954,45.414 21.932,45.424 V 51.063 C 22.239,51.249 22.573,51.421 22.932,51.576 V 50.541 C 22.601,50.394 22.286,50.237 22,50.063 Z M 36,45.975 C 35.977,45.983 35.954,45.991 35.932,46 V 52.779 C 36.27,52.74 36.598,52.676 36.932,52.625 V 51.635 C 36.621,51.684 36.315,51.743 36,51.779 Z M 27.932,45.979 V 52.779 C 28.266,52.818 28.597,52.836 28.932,52.863 V 51.857 C 28.621,51.833 28.311,51.815 28,51.779 V 46.004 C 27.977,45.995 27.954,45.987 27.932,45.979 Z M 34,46.678 C 33.977,46.684 33.955,46.693 33.932,46.699 V 52.945 C 34.261,52.928 34.598,52.891 34.932,52.863 V 51.869 C 34.62,51.896 34.307,51.929 34,51.945 Z M 29.932,46.693 V 52.945 C 30.275,52.964 30.598,52.966 30.932,52.975 V 51.973 C 30.622,51.965 30.32,51.963 30,51.945 V 46.709 C 29.978,46.703 29.954,46.7 29.932,46.693 Z M 32,46.994 C 31.977,46.994 31.955,47 31.932,47 V 53 C 32.252,53 32.597,52.983 32.932,52.975 V 51.977 C 32.619,51.986 32.298,52 32,52 Z M 20.035,47.338 C 19.973,47.545 19.932,47.763 19.932,48 19.932,48.913 20.31,49.663 20.932,50.287 V 49.207 C 20.432,48.68 20.114,48.061 20.035,47.338 Z"/>
</svg>
